X:3
T: SCHLOAP KINGEKEN SCHLOAP
N: K0016
O: Europa, Mitteleuropa, Deutschland, Oderbruch
R: Kinder -, Wiegen - Lied
M: 2/4
L: 1/16
K: F
 | A4GGG2 | F4z2
CC | A2A2G2G2 | F4z4 |
A2A2A2cc | c2B2B4 |
GGG2G2B2 | A2G2F4 |
A4GGG2 | F4z4

@@@ Tune index: 7340
